Numix/16/status/btsync-gui-paused.svg

<?xml version="1.0" encoding="UTF-8" standalone="no"?>
<!-- Created with Inkscape (http://www.inkscape.org/) -->

<svg
   xmlns:dc="http://purl.org/dc/elements/1.1/"
   xmlns:cc="http://creativecommons.org/ns#"
   xmlns:rdf="http://www.w3.org/1999/02/22-rdf-syntax-ns#"
   xmlns:svg="http://www.w3.org/2000/svg"
   xmlns="http://www.w3.org/2000/svg"
   xmlns:sodipodi="http://sodipodi.sourceforge.net/DTD/sodipodi-0.dtd"
   xmlns:inkscape="http://www.inkscape.org/namespaces/inkscape"
   id="svg2"
   version="1.1"
   inkscape:version="0.91 r"
   width="16"
   height="16"
   sodipodi:docname="btsync-gui-paused.svg">
  <metadata
     id="metadata8">
    <rdf:RDF>
      <cc:Work
         rdf:about="">
        <dc:format>image/svg+xml</dc:format>
        <dc:type
           rdf:resource="http://purl.org/dc/dcmitype/StillImage" />
        <dc:title />
      </cc:Work>
    </rdf:RDF>
  </metadata>
  <defs
     id="defs6">
    <clipPath
       id="clipPath-408241621">
      <g
         transform="translate(0,-1004.3622)"
         id="g3616">
        <path
           style="fill:#1890d0"
           inkscape:connector-curvature="0"
           d="m -24,13 c 0,1.105 -0.672,2 -1.5,2 -0.828,0 -1.5,-0.895 -1.5,-2 0,-1.105 0.672,-2 1.5,-2 0.828,0 1.5,0.895 1.5,2 z"
           transform="matrix(15.333333,0,0,11.5,414.99999,878.8622)"
           id="path3618" />
      </g>
    </clipPath>
  </defs>
  <sodipodi:namedview
     pagecolor="#ffffff"
     bordercolor="#666666"
     borderopacity="1"
     objecttolerance="10"
     gridtolerance="10"
     guidetolerance="10"
     inkscape:pageopacity="0"
     inkscape:pageshadow="2"
     inkscape:window-width="1366"
     inkscape:window-height="747"
     id="namedview4"
     showgrid="false"
     inkscape:zoom="15.170655"
     inkscape:cx="16.882693"
     inkscape:cy="4.7628212"
     inkscape:window-x="0"
     inkscape:window-y="21"
     inkscape:window-maximized="1"
     inkscape:current-layer="svg2" />
  <g
     transform="matrix(0.25295652,0,0,0.25295652,1.9228009,1.9243033)"
     id="g3628"
     style="opacity:0.4;fill:#ececec;fill-opacity:1">
    <path
       style="fill:#ececec;fill-opacity:1"
       d="m 11,3 c -4.418435,0 -8,3.581565 -8,8 0,4.418435 3.581565,8 8,8 4.418435,0 8,-3.581565 8,-8 0,-4.418435 -3.581565,-8 -8,-8 z m -3.75,2 3,0 A 1.0001,1.0001 0 0 1 11,5.3417969 1.0001,1.0001 0 0 1 11.75,5 l 3,0 a 1.0001,1.0001 0 0 1 1,1 l 0,1.9140625 C 15.95092,8.1962057 16.135328,8.4915993 16.28125,8.8125 L 17.5,8.34375 l -1,3.46875 -0.75,-0.417969 0,1.408203 0.59375,0.228516 C 16.187037,13.407129 15.979607,13.749392 15.75,14.074219 L 15.75,16 a 1.0001,1.0001 0 0 1 -1,1 l -3,0 A 1.0001,1.0001 0 0 1 11,16.660156 1.0001,1.0001 0 0 1 10.25,17 l -3,0 a 1.0001,1.0001 0 0 1 -1,-1 l 0,-1.939453 C 6.0482982,13.775425 5.8625527,13.47858 5.71875,13.15625 L 4.5,13.59375 l 1,-3.375 0.75,0.402344 0,-1.3925784 L 5.65625,9 C 5.8095088,8.6183946 6.0179158,8.2704044 6.25,7.9394531 L 6.25,6 a 1.0001,1.0001 0 0 1 1,-1 z m 5.5,2.75 0,6.492188 c 0.37158,-0.181025 0.708486,-0.420122 1,-0.707032 l 0,-3.253906 L 13.1875,9.96875 13.75,9.75 l 0,-1.2851562 C 13.458677,8.1743867 13.124004,7.9308058 12.75,7.75 Z m -3.5,0.00977 c -0.3730305,0.185668 -0.7082387,0.4313045 -1,0.7226519 l 0,3.2148441 L 8.8125,12 8.25,12.21875 l 0,1.292969 c 0.2907393,0.293992 0.626965,0.539867 1,0.726562 l 0,-6.4785154 z"
       transform="matrix(2.875,0,0,2.875,-7.6003215,-7.6062606)"
       id="path3630"
       inkscape:connector-curvature="0" />
  </g>
  <g
     id="g3650"
     clip-path="url(#clipPath-408241621)"
     transform="matrix(0.49988464,0,0,0.49988464,-37.411065,7.9950011)">
    <!-- color: #004794 -->
    <g
       id="g3652" />
  </g>
  <g
     id="g3179"
     transform="matrix(0.6630485,0,0,0.6630485,0.7541,-0.8298046)"
     style="fill:#ececec;fill-opacity:1" />
  <g
     id="g3037-6"
     transform="matrix(0.72724999,0,0,0.72724999,0.18206253,2.5006659e-4)"
     style="fill:#ececec;fill-opacity:1">
    <rect
       y="6"
       x="11.5"
       height="10"
       width="3"
       id="rect3017-1"
       style="fill:#ececec;fill-opacity:1;stroke:none" />
    <rect
       y="6"
       x="7"
       height="10"
       width="3"
       id="rect3017-7-4"
       style="fill:#ececec;fill-opacity:1;stroke:none" />
  </g>
</svg>

<!-- Created with Inkscape (http://www.inkscape.org/) -->
<svg xmlns="http://www.w3.org/2000/svg" viewBox="0 0 16 16">
 <g transform="matrix(0.25295652,0,0,0.25295652,1.9228009,1.9243033)" style="fill:#ececec;opacity:0.4;fill-opacity:1">
  <path d="m 11 3 c -4.418 0 -8 3.582 -8 8 0 4.418 3.582 8 8 8 4.418 0 8 -3.582 8 -8 0 -4.418 -3.582 -8 -8 -8 z m -3.75 2 3 0 a 1 1 0 0 1 0.75 0.342 1 1 0 0 1 0.75 -0.342 l 3 0 a 1 1 0 0 1 1 1 l 0 1.914 c 0.201 0.282 0.385 0.578 0.531 0.898 l 1.219 -0.469 l -1 3.469 -0.75 -0.418 0 1.408 0.594 0.229 c -0.157 0.376 -0.364 0.718 -0.594 1.043 l 0 1.926 a 1 1 0 0 1 -1 1 l -3 0 a 1 1 0 0 1 -0.75 -0.34 1 1 0 0 1 -0.75 0.34 l -3 0 a 1 1 0 0 1 -1 -1 l 0 -1.939 c -0.202 -0.285 -0.387 -0.582 -0.531 -0.904 l -1.219 0.438 l 1 -3.375 0.75 0.402 0 -1.393 l -0.594 -0.229 c 0.153 -0.382 0.362 -0.73 0.594 -1.061 l 0 -1.939 a 1 1 0 0 1 1 -1 z m 5.5 2.75 0 6.492 c 0.372 -0.181 0.708 -0.42 1 -0.707 l 0 -3.254 l -0.563 -0.312 0.563 -0.219 l 0 -1.285 c -0.291 -0.29 -0.626 -0.534 -1 -0.715 m -3.5 0.01 c -0.373 0.186 -0.708 0.431 -1 0.723 l 0 3.215 l 0.563 0.303 -0.563 0.219 l 0 1.293 c 0.291 0.294 0.627 0.54 1 0.727 l 0 -6.479 z" transform="matrix(2.875,0,0,2.875,-7.6003215,-7.6062606)"/>
 </g>
 <g transform="matrix(0.49988464,0,0,0.49988464,-37.411065,7.9950011)">
  <!-- color: #004794 -->
 </g>
 <g transform="matrix(0.72724999,0,0,0.72724999,0.18206253,2.5006659e-4)" style="fill:#ececec;fill-opacity:1">
  <rect y="6" x="11.5" height="10" width="3" style="stroke:none"/>
  <rect y="6" x="7" height="10" width="3" style="stroke:none"/>
 </g>
</svg>
